Modules/BetterCms.Module.Root/Scss/assets/icons/editor-h6.svg

<svg height="11" width="20" xmlns="http://www.w3.org/2000/svg" viewBox="0 0 20 11"><path fill="#303646" fill-rule="evenodd" d="m0 10.82h1.86v-4.48h5.07v4.48h1.86v-10.64h-1.86v4.42h-5.07v-4.42h-1.86v10.64m15.27.18c2.23 0 3.94-1.5 3.94-3.62v-.03c0-2.12-1.65-3.34-3.7-3.34-1.14 0-1.93.43-2.55 1.08.03-1.46.7-3.39 2.55-3.39.94 0 1.56.35 2.3.93l1-1.44c-.92-.75-1.86-1.19-3.24-1.19-3 0-4.55 2.54-4.55 5.79v.03c0 2.14.49 3.25 1.29 4.06.71.71 1.65 1.12 2.96 1.12m-.05-1.63c-1.32 0-2.2-.82-2.2-1.89v-.04c0-1.01.84-1.86 2.16-1.86 1.32 0 2.16.79 2.16 1.85v.03c0 1.09-.8 1.91-2.12 1.91"/></svg>

<?xml version="1.0" encoding="utf-8"?>
<!-- Generator: Avocode 2.4.5 - http://avocode.com -->
<svg height="11" width="20" xmlns:xlink="http://www.w3.org/1999/xlink" xmlns="http://www.w3.org/2000/svg" viewBox="0 0 20 11">
    <path fill="#303646" fill-rule="evenodd" d="M 0 10.82 L 1.86 10.82 L 1.86 6.34 L 6.93 6.34 L 6.93 10.82 L 8.79 10.82 L 8.79 0.18 L 6.93 0.18 L 6.93 4.6 L 1.86 4.6 L 1.86 0.18 L 0 0.18 L 0 10.82 Z M 15.27 11 C 17.5 11 19.21 9.5 19.21 7.38 L 19.21 7.35 C 19.21 5.23 17.56 4.01 15.51 4.01 C 14.37 4.01 13.58 4.44 12.96 5.09 C 12.99 3.63 13.66 1.7 15.51 1.7 C 16.45 1.7 17.07 2.05 17.81 2.63 L 18.81 1.19 C 17.89 0.44 16.95 0 15.57 0 C 12.57 0 11.02 2.54 11.02 5.79 L 11.02 5.82 C 11.02 7.96 11.51 9.07 12.31 9.88 C 13.02 10.59 13.96 11 15.27 11 L 15.27 11 Z M 15.22 9.37 C 13.9 9.37 13.02 8.55 13.02 7.48 L 13.02 7.44 C 13.02 6.43 13.86 5.58 15.18 5.58 C 16.5 5.58 17.34 6.37 17.34 7.43 L 17.34 7.46 C 17.34 8.55 16.54 9.37 15.22 9.37 L 15.22 9.37 Z M 15.22 9.37" />
</svg>
